X:20
T:Sylph. CAM2.[21], The
T:Plymouth Lasses,aka. CAM2.[21]
T:Self,aka. CAM2.[21], The
B:Anon MS#2, early 19thC, Northumbria, Cocks Coll.
Z:Village Music Project 2016 Steve Mansfield
M:6/8
L:1/8
Q:3/8=75
N: * fgad gec in Mss
K:D
A | AFA dfa | agf e2g | fag fed | cee e2A |
AFA dfa | agf e2g | fad egc | ddd d2 :|
|: a | fac' d'c'b | bag f2d | f/g/ad f/g/ad |
cee e2e | fac' d'c'b | bag f2d | "*"f/g/ad gec | ddd d2 :|

